X:95
T: Bowels of the Earth
C: Peter Fitzgerald
Z: B.Black
R: jig
M: 6/8
L: 1/8
K: C
A | GcB G2 A | B2 c dcB | AGG FDD | EDE DEF |
GcB G2 A | B2 c dcB | GBd fdd |1 dBG F2 :|2\
dBG c2 ||
d | edc BGG | FGA G2 A | GEE C2 E | FDD D2 G |
ECE DGA | BGE F2 D | GBd fdd | dBG c2 :|
